packages/katcn/src/icons/svg/arrow14-solid.svg

<svg width="24" height="24" viewBox="0 0 24 24" fill="none" xmlns="http://www.w3.org/2000/svg">
<path d="M22 12C22 17.4902 17.468 22 11.9507 22C6.72906 22 2.49261 18.0784 2 12.9804H12.936L9.78325 16.2157C9.38916 16.6078 9.38916 17.1961 9.78325 17.5882C9.9803 17.7843 10.1773 17.8824 10.4729 17.8824C10.7685 17.8824 10.9655 17.7843 11.1626 17.5882L15.9901 12.6863C16.3842 12.2941 16.3842 11.7059 15.9901 11.3137L11.1626 6.41176C10.7685 6.01961 10.1773 6.01961 9.78325 6.41176C9.38916 6.80392 9.38916 7.39216 9.78325 7.78431L12.936 11.0196H2C2.49261 5.92157 6.82759 2 11.9507 2C17.468 2 22 6.5098 22 12Z" fill="black"/>
</svg>

<svg xmlns="http://www.w3.org/2000/svg" fill="none" viewBox="0 0 24 24"><path fill="#000" d="M22 12c0 5.49-4.532 10-10.05 10A9.95 9.95 0 0 1 2 12.98h10.936l-3.153 3.236a.944.944 0 0 0 0 1.372c.197.196.394.294.69.294s.492-.098.69-.294l4.827-4.902a.945.945 0 0 0 0-1.372l-4.827-4.902a.956.956 0 0 0-1.38 0 .945.945 0 0 0 0 1.372l3.153 3.236H2C2.493 5.922 6.828 2 11.95 2 17.469 2 22 6.51 22 12"/></svg>
